Numix-GalliumOS/22/mimetypes/application-x-scribus.svg

<?xml version="1.0" encoding="UTF-8" standalone="no"?>
<svg
   xmlns:dc="http://purl.org/dc/elements/1.1/"
   xmlns:cc="http://creativecommons.org/ns#"
   xmlns:rdf="http://www.w3.org/1999/02/22-rdf-syntax-ns#"
   xmlns:svg="http://www.w3.org/2000/svg"
   xmlns="http://www.w3.org/2000/svg"
   xmlns:sodipodi="http://sodipodi.sourceforge.net/DTD/sodipodi-0.dtd"
   xmlns:inkscape="http://www.inkscape.org/namespaces/inkscape"
   width="22"
   height="22"
   viewBox="0 0 22 22"
   id="svg2"
   version="1.1"
   inkscape:version="0.91 r13725"
   sodipodi:docname="application-x-scribus.svg">
  <metadata
     id="metadata22">
    <rdf:RDF>
      <cc:Work
         rdf:about="">
        <dc:format>image/svg+xml</dc:format>
        <dc:type
           rdf:resource="http://purl.org/dc/dcmitype/StillImage" />
        <dc:title></dc:title>
      </cc:Work>
    </rdf:RDF>
  </metadata>
  <defs
     id="defs20" />
  <sodipodi:namedview
     pagecolor="#ffffff"
     bordercolor="#666666"
     borderopacity="1"
     objecttolerance="10"
     gridtolerance="10"
     guidetolerance="10"
     inkscape:pageopacity="0"
     inkscape:pageshadow="2"
     inkscape:window-width="1366"
     inkscape:window-height="713"
     id="namedview18"
     showgrid="true"
     inkscape:zoom="29.5"
     inkscape:cx="9.0368416"
     inkscape:cy="8.6853528"
     inkscape:window-x="0"
     inkscape:window-y="28"
     inkscape:window-maximized="1"
     inkscape:current-layer="svg2">
    <inkscape:grid
       type="xygrid"
       id="grid3010"
       empspacing="5"
       visible="true"
       enabled="true"
       snapvisiblegridlinesonly="true" />
  </sodipodi:namedview>
  <path
     style="fill:#eb1b23;fill-opacity:1"
     d="M 4,0 C 3.527343,0 3,0.527344 3,1 l 0,20 c 0,0.445312 0.554687,1 1,1 l 14,0 c 0.445313,0 0.992367,-0.554753 1,-1 L 19,6 13,0 z"
     id="path4"
     inkscape:connector-curvature="0"
     sodipodi:nodetypes="ssssssccs" />
  <path
     style="fill:#000000;fill-opacity:0.19599998"
     d="m 14,6 5,5 0,-5 z"
     id="path6"
     inkscape:connector-curvature="0"
     sodipodi:nodetypes="cccc" />
  <path
     style="fill:#ffffff;fill-opacity:0.39200003"
     d="m 13,0 6,6 -5,0 C 13.554688,6 13,5.445312 13,5 z"
     id="path8"
     inkscape:connector-curvature="0"
     sodipodi:nodetypes="ccssc" />
  <g
     style="fill:#ffffff"
     id="g10"
     transform="matrix(1.5204202,0,0,1.5678899,-1.1633791,-0.54237382)" />
  <path
     style="color:#000000;font-style:normal;font-variant:normal;font-weight:normal;font-stretch:normal;font-size:medium;line-height:normal;font-family:sans-serif;text-indent:0;text-align:start;text-decoration:none;text-decoration-line:none;text-decoration-style:solid;text-decoration-color:#000000;letter-spacing:normal;word-spacing:normal;text-transform:none;direction:ltr;block-progression:tb;writing-mode:lr-tb;baseline-shift:baseline;text-anchor:start;white-space:normal;clip-rule:nonzero;display:inline;overflow:visible;visibility:visible;opacity:1;isolation:auto;mix-blend-mode:normal;color-interpolation:sRGB;color-interpolation-filters:linearRGB;solid-color:#000000;solid-opacity:1;fill:#f3ffff;fill-opacity:1;fill-rule:evenodd;stroke:none;stroke-width:0.56400001;stroke-linecap:butt;stroke-linejoin:miter;stroke-miterlimit:4;stroke-dasharray:none;stroke-dashoffset:0;stroke-opacity:1;color-rendering:auto;image-rendering:auto;shape-rendering:auto;text-rendering:auto;enable-background:accumulate"
     d="m 13.110188,7.3565329 c -0.284704,-0.032152 -0.513328,-0.03232 -0.723039,0.00853 -0.209712,0.040839 -0.403926,0.140937 -0.519366,0.2667668 -0.115439,0.1258214 -0.151616,0.2494457 -0.169727,0.3093343 -0.406599,0.7985586 -0.887373,1.59177 -1.327264,2.270349 -0.5429161,0.804506 -1.1768142,1.741653 -1.5071798,2.497385 -0.20115,0.461645 -0.4178474,1.017921 -0.6313854,1.597758 C 7.7886726,15.521538 7.3887786,16.735619 7,17.95624 7.6329577,18 7.6329577,17.996467 8.1213416,18 8.4808845,17.339765 9.0773763,16.711932 9.5764701,16.253483 10.439774,15.465329 11.685439,14.65969 12.875098,14.47977 l 0.400559,-0.0596 c 0.02217,-1.244632 0.136087,-2.591953 0.751064,-3.683639 0.252176,-0.453757 0.604144,-0.8138952 0.930107,-1.2259874 0.08384,-0.067641 0.01811,-0.147596 0.02716,-0.2213589 -0.243452,-1.2083691 -1.068186,-1.8079612 -1.850027,-1.9297956 -0.0084,0.00144 -0.01655,-0.00199 -0.02377,-0.00289 z"
     id="path53"
     inkscape:connector-curvature="0"
     sodipodi:nodetypes="cssccccccccccccccc" />
</svg>

<svg xmlns="http://www.w3.org/2000/svg" viewBox="0 0 22 22">
 <path d="m 4 0 c -0.473 0 -1 0.527 -1 1 l 0 20 c 0 0.445 0.555 1 1 1 l 14 0 c 0.445 0 0.992 -0.555 1 -1 l 0 -15 -6 -6 z" style="fill:#eb1b23;fill-opacity:1"/>
 <path d="m 14 6 5 5 0 -5 z" style="fill:#000;fill-opacity:0.196"/>
 <path d="m 13 0 6 6 -5 0 c -0.445 0 -1 -0.555 -1 -1 z" style="fill:#fff;fill-opacity:0.392"/>
 <path d="m 13.11 7.357 c -0.285 -0.032 -0.513 -0.032 -0.723 0.009 -0.21 0.041 -0.404 0.141 -0.519 0.267 -0.115 0.126 -0.152 0.249 -0.17 0.309 -0.407 0.799 -0.887 1.592 -1.327 2.27 -0.543 0.805 -1.177 1.742 -1.507 2.497 -0.201 0.462 -0.418 1.018 -0.631 1.598 c -0.444 1.215 -0.843 2.429 -1.232 3.65 0.633 0.044 0.633 0.04 1.121 0.044 0.36 -0.66 0.956 -1.288 1.455 -1.747 0.863 -0.788 2.109 -1.594 3.299 -1.774 l 0.401 -0.06 c 0.022 -1.245 0.136 -2.592 0.751 -3.684 0.252 -0.454 0.604 -0.814 0.93 -1.226 0.084 -0.068 0.018 -0.148 0.027 -0.221 -0.243 -1.208 -1.068 -1.808 -1.85 -1.93 -0.008 0.001 -0.017 -0.002 -0.024 -0.003 z" mix-blend-mode="normal" isolation="auto" white-space="normal" solid-opacity="1" solid-color="#000000" style="visibility:visible;shape-rendering:auto;color-interpolation-filters:linearRGB;fill:#f3ffff;opacity:1;image-rendering:auto;fill-opacity:1;stroke:none;display:inline;color:#000;fill-rule:evenodd;color-rendering:auto;color-interpolation:sRGB"/>
</svg>
